X: 7
T: The Chrysanthemum
C: Scott Joplin
%%abc-version 2.0
%%abcx-abcm2ps-target-version 5.9.1 (29 Sep 2008)
%%abc-creator hum2abc beta
%%abcx-conversion-date 2021/07/20 09:00:57
%%abc-copyright Copyright 2004 by Craig Stuart Sapp
%%abc-edited-by Craig Stuart Sapp
%%abc-edited-by Craig Stuart Sapp
%%abcx-initial-encoding-date 2004/07/06
%%humdrum-veritas 2785668704
%%humdrum-veritas-data 540884466
%%removed 0's from note length
%%linebreak <none>
%%barnumbers 0
L: 1/8
M: 2/4
N: Derived from chrysanthemum.krn
Q: "Slow March Tempo." 1/4=88
%%staves {1 2}
V: 1 clef=treble
V: 2 clef=bass
K: Bb
[V:1] [K:clef=treble][M:2/4]f/=e/_e/d/c2 | 
[V:2] [K:clef=bass][M:2/4]F/=E/_E/D/C2 | 
[V:1] E/D/C/_C/B,2 | 
[V:2] E,/D,/C,/_C,/B,,2 | 
[V:1] G/^F/G/e/ d/=F/c | 
[V:2] [E,E,,][ECG,] [F,F,,][EA,F,] | 
[V:1] B z z d ]|:  
[V:2] B,,[DB,F,] F,,[DB,F,] ]|:  
[V:1] e/f/g/A/ c/d/e/G/ | 
[V:2] [CC,][EA,F,] F,,[EA,F,] | 
[V:1] B/c/d/F/- F/B/F | 
[V:2] B,,[DB,F,] F,,[DB,F,] | 
[V:1] F/^F/G/e/ G/^G/A/e/ | 
[V:2] A,,[EA,F,] F,,[ECF,] | 
[V:1] d/B/d/f/- fd | 
[V:2] B,,[DB,F,] [DD,][=B,=B,,] | 
[V:1] e/f/g/A/ c/d/e/G/ | 
[V:2] [CC,][EA,F,] F,,[EA,F,] | 
[V:1] B/c/d/F/- F/=E/F/G/ | 
[V:2] B,,[DB,F,] =B,,[D^G,F,] | 
[V:1] A/B/=B/c/ d/c/_B/g/ | 
[V:2] C,[CA,F,] C,[=ECB,] | 
[V:1] f2-f d | 
[V:2] [F2C2A,2]-[FCA,] z & F,{/B,,}C, F,, z | 
[V:1] e/f/g/A/ c/d/e/G/ | 
[V:2] C,[EA,F,] F,,[EA,F,] | 
[V:1] B/c/d/F/- F/B/F | 
[V:2] B,,[DB,F,] F,,[DB,F,] | 
[V:1] F/^F/G/e/ G/^G/A/e/ | 
[V:2] A,,[EA,F,] F,,[ECF,] | 
[V:1] d/B/d/f/-f2 | 
[V:2] B,,[DB,F,] D,[DB,F,] | 
[V:1] d/e/f/G/ =B/c/d/G/ | 
[V:2] G,2F,2 & G,[D=B,] F,[DB,G,] | 
[V:1] c/=B/c/d/ [ec][=e^c_B] | 
[V:2] E,2[G,G,,][_G,_G,,] & E,[CG,]x2 | 
[V:1] f/b/f/d/ c/F/A/f/ & [d2B2]x2 |[1 
[V:2] [F,F,,][DB,F,] [F,F,,][ECA,F,] | 
[V:1] B2-B d :|][2 
[V:2] B,,[DB,F,] [DD,][=B,=B,,] :|]  
[V:1] B2[bfdB] z || 
[V:2] D2x2 & B,F, B,, z ||  
[V:1]  [K:F] [afA][c'3a3c3] | 
[V:2]  [K:F] [F,F,,][FCA,] C,[FCA,] | 
[V:1] [d'bd][f'2d'2f2]f'/d'/ | 
[V:2] B,,[FDB,] [DD,][B,B,,] | 
[V:1] c'a/b/- b/c'/[ge] | 
[V:2] [A,A,,][FCA,] [G,G,,][C,C,,] | 
[V:1] f/e/f/a/-a2 | 
[V:2] [F,F,,][FA,] C,[FCA,] | 
[V:1] [afA][c'3a3c3] | 
[V:2] [F,F,,][FCA,] C,[FCA,] | 
[V:1] [d'bd][f'2d'2f2][f'd'f] | 
[V:2] B,,2D,2 & B,,[FDB,] D,[DA,] | 
[V:1] [e'e][^d'/^d/][e'/e/]- [e'/e/][f'/f/][e'e] | 
[V:2] E,2E,2 & E,[CA,] E,[D=B,^G,] | 
[V:1] [e'2c'2a2e2]d'c' & x2[b2e2] | 
[V:2] [C2A,2][C,2C,,2] | 
[V:1] [afA][c'3a3c3] | 
[V:2] [F,F,,][FCA,] C,[FCA,] | 
[V:1] [d'bd][f'd'f]- [f'/d'/f/]d'/b/f/ | 
[V:2] B,,[FDB,] D,[FDB,] | 
[V:1] a/^g/a/c'/ d'/_e'/d'/c'/ | 
[V:2] F,2^F,2 & F,[CA,] ^F,[DCA,] | 
[V:1] b3d/e/ | 
[V:2] G,3z & G,[DB,][DB,] z | 
[V:1] f/g/f/e/ fd | 
[V:2] B,,2=B,,2 & B,,[FDB,] =B,,[FD^G,] | 
[V:1] c[a2c2]b/a/ | 
[V:2] C,2D,2 & C,[FCA,] D,[^FCA,] | 
[V:1] f/d/e/f/ [g_B][aeB] & =B2x2 |[1 
[V:2] [G,G,,][=F=B,G,] C,[EC_B,] | 
[V:1] [fA]=B/c/ d/e/f/g/ :|][2 
[V:2] [FCA,F,] zz2 :|]  
[V:1] [f2A2][fA] d || 
[V:2] [F3C3A,3]z & F,C,F,,x ||  
[V:1]  [K:Bb] e/f/g/A/ c/d/e/G/ | 
[V:2]  [K:Bb] C,[EA,F,] F,,[EA,F,] | 
[V:1] B/c/d/F/- F/B/F | 
[V:2] B,,[DB,F,] F,,[DB,F,] | 
[V:1] F/^F/G/e/ G/^G/A/e/ | 
[V:2] A,,[EA,F,] F,,[ECF,] | 
[V:1] d/B/d/f/- fd | 
[V:2] B,,[DB,F,] [DD,][=B,=B,,] | 
[V:1] e/f/g/A/ c/d/e/G/ | 
[V:2] [CC,][EA,F,] F,,[EA,F,] | 
[V:1] B/c/d/F/- F/=E/F/G/ | 
[V:2] B,,[DB,F,] =B,,[D^G,F,] | 
[V:1] A/B/=B/c/ d/c/_B/g/ | 
[V:2] C,[CA,F,] C,[ECB,] | 
[V:1] f2-f d | 
[V:2] [F2C2A,2]-[FCA,] z & F,{/=B,,}C, F,, z | 
[V:1] e/f/g/A/ c/d/e/G/ | 
[V:2] C,[EA,F,] F,,[EA,F,] | 
[V:1] B/c/d/F/- F/B/F | 
[V:2] B,,[DB,F,] F,,[DB,F,] | 
[V:1] F/^F/G/e/ G/^G/A/e/ | 
[V:2] A,,[EA,F,] F,,[ECF,] | 
[V:1] d/B/d/f/-f2 | 
[V:2] B,,[DB,F,] D,[DB,F,] | 
[V:1] d/e/f/G/ =B/c/d/G/ | 
[V:2] G,2F,2 & G,[D=B,] F,[DB,G,] | 
[V:1] c/=B/c/d/ [ec][=e^c_B] | 
[V:2] E,2[G,G,,][_G,_G,,] & E,[CG,]x2 | 
[V:1] f/b/f/d/ c/F/A/f/ & [d2B2]x2 | 
[V:2] [F,F,,][DB,F,] [F,F,,][ECA,F,] | 
[V:1] B2[bfdB] z ]|:  
[V:2] [DB,]F, B,, z ]|:  
[V:1]  [K:Eb] [BG]>[=A^F] [_A=F][fdA] | 
[V:2]  [K:Eb] E,C, D,B,, | 
[V:1] [eG]>[GE] cB & x2G2 | 
[V:2] E,[B,G,] B,,[EB,G,] | 
[V:1] f/=e/f/e/ fa & A3c | 
[V:2] D,[DB,] B,,[DB,] | 
[V:1] [g4B4] | 
[V:2] z/ B,/C/D/ E/D/C/B,/ & E,4 | 
[V:1] [BG]>[=A^F] [_A=F][fdA] | 
[V:2] E,C, D,B,, | 
[V:1] [eG]>[GE] [cG][^c_G] | 
[V:2] E,[B,G,] E,=E, | 
[V:1] d/^c/d/f/ [B=E][=c=A_E] & F2x2 | 
[V:2] F,[DB,] [G,G,,][F,F,,] | 
[V:1] [B3D3]B | 
[V:2] [B,B,,]{/=E,}F,B,, z | 
[V:1] [BG]>[=A^F] [_A=F][fdA] | 
[V:2] E,C, D,B,, | 
[V:1] [eG]>[GE] cB & x2G2 | 
[V:2] E,[B,G,] B,,[EB,G,] | 
[V:1] f/=e/f/e/ f^f & A3[dc] | 
[V:2] D,D [B,B,,][A,A,,] | 
[V:1] [g3d3=B3]g | 
[V:2] [G,G,,]{/^C,}D,G,, z | 
[V:1] g>f d'c' & c2[^f2e2] | 
[V:2] A,,[CA,] =A,,[EC^F,] | 
[V:1] c'b- b/g/e/B/ & [g2e2]z2 | 
[V:2] B,,[EB,G,] E,[EG,] | 
[V:1] c/^c/d/f/ d/e/f/b/ |[1 
[V:2] D,2B,,2 & D,[B,A,] B,,[DB,A,] | 
[V:1] e2-e [BA] :|][2 
[V:2] [E2B,2G,2]-[EB,G,] z & E,B,, C,D, :|]  
[V:1] e2[e'ge] z ]|: 
[V:2] [E2-B,2-G,2][EB,G,] z & E,{/=A,,}B,, E,, z ]|:  
[V:1] c/e/d/e/- e/^f/g/c'/ | 
[V:2] C,[ECG,] C,[ECG,] | 
[V:1] =bg/f/ e/d=B/ | 
[V:2] z [F=B,G,][FB,G,][FB,G,] & G,,4 | 
[V:1] c/e/d/e/- e/^f/g/c'/ | 
[V:2] C,[ECG,] C,[ECG,] | 
[V:1] =bg/f/ e/d=B/ | 
[V:2] z [F=B,G,][FB,G,][FB,G,] & G,,4 | 
[V:1] c/=B/c/B/ c[AF] & A3[DC] | 
[V:2] F,,3x & F,,[FDCA,] [FDCA,][F,F,,] | 
[V:1] Gg/^f/ gg & [F3D3=B,3][d=BG] | 
[V:2] [G,3G,,3][G,G,,] | 
[V:1] c/=B/c/B/ cA & FF F[FDC] | 
[V:2] [A,A,,][DCA,] [DCA,][F,F,,] | 
[V:1] [GFD=B,] z !accent![gd=BG] z | 
[V:2] [G,G,,] z !accent![G,,G,,,] z | 
[V:1] c/e/d/e/- e/^f/g/c'/ | 
[V:2] C,[ECG,] C,[ECG,] | 
[V:1] =bg/f/ e/d=B/ | 
[V:2] z [F=B,G,][FB,G,][FB,G,] & G,,4 | 
[V:1] c/e/d/e/- e/^f/g/c'/ | 
[V:2] C,[ECG,] C,[ECG,] | 
[V:1] =bg/f/ e/d=B/ | 
[V:2] z [F=B,G,][FB,G,][FB,G,] & G,,4 | 
[V:1] c/g/^f/g/ c'/g/f/g/ | 
[V:2] C,[ECG,] C,[ECG,] | 
[V:1] a3a | 
[V:2] F,,3z & F,,[FCA,][FCA,]x | 
[V:1] g/a/g/f/ d/f/e/d/ |[1 
[V:2] G,,[F=B,G,] G,,[FB,G,] | 
[V:1] c2[g2d2=B2G2] :|][2 
[V:2] [E2C2][G,2G,,2] :|]  
[V:1] c2[B2A2F2] || 
[V:2] [E2C2]D,2 ||  
[V:1] [BG]>[=A^F] [_A=F][fdA] | 
[V:2] E,C, D,B,, | 
[V:1] [eG]>[GE] cB & x2G2 | 
[V:2] E,[B,G,] B,,[EB,G,] | 
[V:1] f/=e/f/e/ fa & A3c | 
[V:2] D,[DB,] B,,[DB,] | 
[V:1] [g4B4] | 
[V:2] z/ B,/C/D/ E/D/C/B,/ & E,4 | 
[V:1] [BG]>[=A^F] [_A=F][fdA] | 
[V:2] E,C, D,B,, | 
[V:1] [eG]>[GE] [cG][^c_G] | 
[V:2] E,[B,G,] E,=E, | 
[V:1] d/^c/d/f/ [B=E][=c=A_E] & F2x2 | 
[V:2] F,[DB,] [G,G,,][F,F,,] | 
[V:1] [B3D3]B | 
[V:2] [B,B,,]{/=E,}F,B,, z | 
[V:1] [BG]>[=A^F] [_A=F][fdA] | 
[V:2] E,C, D,B,, | 
[V:1] [eG]>[GE] cB & x2G2 | 
[V:2] E,[B,G,] B,,[EB,G,] | 
[V:1] f/=e/f/e/ f^f & A3[dc] | 
[V:2] D,[DB,] [B,B,,][A,A,,] | 
[V:1] [g3d3=B3]g | 
[V:2] [G,G,,]{/^C,}D,G,, z | 
[V:1] g>f d'c' & c2^f2 | 
[V:2] A,,[CA,] =A,,[EC^F,] | 
[V:1] c'b- b/g/e/B/ & [g2e2]z2 | 
[V:2] B,,[EB,G,] E,[EB,G,] | 
[V:1] c/^c/d/f/ d/e/f/b/ | 
[V:2] D,[B,A,] B,,[DB,A,] | 
[V:1] e2!accent![e'ge] z |]  
[V:2] [E2B,2G,2]-!accent![EB,G,] z & E,{/=A,,}B,, !accent!E,, z |]  


